Origami/64x64/apps/accerciser.svg

<svg width="64" height="64" version="1" xmlns="http://www.w3.org/2000/svg">
 <path d="m2 33v2c0 2.216 1.784 4 4 4h52c2.216 0 4-1.784 4-4v-2c0 2.216-1.784 4-4 4h-52c-2.216 0-4-1.784-4-4z" style="opacity:.2"/>
 <path d="m4 48v2c0 1.662 1.338 3 3 3s3-1.338 3-3v-2c0 1.662-1.338 3-3 3s-3-1.338-3-3zm50 0v2c0 1.662 1.338 3 3 3s3-1.338 3-3v-2c0 1.662-1.338 3-3 3s-3-1.338-3-3zm-44 5v2c0 3.324 2.676 6 6 6h2c3.324 0 6-2.676 6-6v-2c0 3.324-2.676 6-6 6h-2c-3.324 0-6-2.676-6-6zm30 0v2c0 3.324 2.676 6 6 6h2c3.324 0 6-2.676 6-6v-2c0 3.324-2.676 6-6 6h-2c-3.324 0-6-2.676-6-6z" style="opacity:.2"/>
 <rect x="2" y="26" width="60" height="12" rx="4" ry="4" style="fill:#2a85c2"/>
 <path d="m6 26c-2.216 0-4 1.784-4 4v1c0-2.216 1.784-4 4-4h52c2.216 0 4 1.784 4 4v-1c0-2.216-1.784-4-4-4h-52z" style="fill:#ffffff;opacity:.2"/>
 <rect transform="matrix(0,-1,-1,0,0,0)" x="-60" y="-24" width="56" height="14" rx="6" ry="6" style="fill:#c2352a"/>
 <rect transform="matrix(0,-1,-1,0,0,0)" x="-60" y="-54" width="56" height="14" rx="6" ry="6" style="fill:#c2352a"/>
 <rect transform="matrix(0,-1,-1,0,0,0)" x="-52" y="-10" width="40" height="6" rx="3" ry="3" style="fill:#d8564b"/>
 <rect transform="matrix(0,-1,-1,0,0,0)" x="-52" y="-60" width="40" height="6" rx="3" ry="3" style="fill:#d8564b"/>
 <path d="m16 4c-3.324 0-6 2.676-6 6v1c0-3.324 2.676-6 6-6h2c3.324 0 6 2.676 6 6v-1c0-3.324-2.676-6-6-6h-2zm30 0c-3.324 0-6 2.676-6 6v1c0-3.324 2.676-6 6-6h2c3.324 0 6 2.676 6 6v-1c0-3.324-2.676-6-6-6h-2zm-39 8c-1.662 0-3 1.338-3 3v1c0-1.662 1.338-3 3-3s3 1.338 3 3v-1c0-1.662-1.338-3-3-3zm50 0c-1.662 0-3 1.338-3 3v1c0-1.662 1.338-3 3-3s3 1.338 3 3v-1c0-1.662-1.338-3-3-3z" style="fill:#ffffff;opacity:.2"/>
</svg>

<svg xmlns="http://www.w3.org/2000/svg" width="64" height="64" version="1">
 <path style="opacity:0.2" d="m 2,33 0,2 c 0,2.216 1.784,4 4,4 l 52,0 c 2.216,0 4,-1.784 4,-4 l 0,-2 c 0,2.216 -1.784,4 -4,4 L 6,37 C 3.784,37 2,35.216 2,33 Z"/>
 <path style="opacity:0.2" d="m 4,48 0,2 c 0,1.662 1.338,3 3,3 1.662,0 3,-1.338 3,-3 l 0,-2 c 0,1.662 -1.338,3 -3,3 -1.662,0 -3,-1.338 -3,-3 z m 50,0 0,2 c 0,1.662 1.338,3 3,3 1.662,0 3,-1.338 3,-3 l 0,-2 c 0,1.662 -1.338,3 -3,3 -1.662,0 -3,-1.338 -3,-3 z m -44,5 0,2 c 0,3.324 2.676,6 6,6 l 2,0 c 3.324,0 6,-2.676 6,-6 l 0,-2 c 0,3.324 -2.676,6 -6,6 l -2,0 c -3.324,0 -6,-2.676 -6,-6 z m 30,0 0,2 c 0,3.324 2.676,6 6,6 l 2,0 c 3.324,0 6,-2.676 6,-6 l 0,-2 c 0,3.324 -2.676,6 -6,6 l -2,0 c -3.324,0 -6,-2.676 -6,-6 z"/>
 <rect style="fill:#2a85c2" width="60" height="12" x="2" y="26" rx="4" ry="4"/>
 <path style="opacity:0.2;fill:#ffffff" d="M 6 26 C 3.784 26 2 27.784 2 30 L 2 31 C 2 28.784 3.784 27 6 27 L 58 27 C 60.216 27 62 28.784 62 31 L 62 30 C 62 27.784 60.216 26 58 26 L 6 26 z"/>
 <rect style="fill:#c2352a" width="56" height="14" x="-60" y="-24" rx="6" ry="6" transform="matrix(0,-1,-1,0,0,0)"/>
 <rect style="fill:#c2352a" width="56" height="14" x="-60" y="-54" rx="6" ry="6" transform="matrix(0,-1,-1,0,0,0)"/>
 <rect style="fill:#d8564b" width="40" height="6" x="-52" y="-10" rx="3" ry="3" transform="matrix(0,-1,-1,0,0,0)"/>
 <rect style="fill:#d8564b" width="40" height="6" x="-52" y="-60" rx="3" ry="3" transform="matrix(0,-1,-1,0,0,0)"/>
 <path style="opacity:0.2;fill:#ffffff" d="M 16 4 C 12.676 4 10 6.676 10 10 L 10 11 C 10 7.676 12.676 5 16 5 L 18 5 C 21.324 5 24 7.676 24 11 L 24 10 C 24 6.676 21.324 4 18 4 L 16 4 z M 46 4 C 42.676 4 40 6.676 40 10 L 40 11 C 40 7.676 42.676 5 46 5 L 48 5 C 51.324 5 54 7.676 54 11 L 54 10 C 54 6.676 51.324 4 48 4 L 46 4 z M 7 12 C 5.338 12 4 13.338 4 15 L 4 16 C 4 14.338 5.338 13 7 13 C 8.662 13 10 14.338 10 16 L 10 15 C 10 13.338 8.662 12 7 12 z M 57 12 C 55.338 12 54 13.338 54 15 L 54 16 C 54 14.338 55.338 13 57 13 C 58.662 13 60 14.338 60 16 L 60 15 C 60 13.338 58.662 12 57 12 z"/>
</svg>
